Obsidian/status/22s/mstdn-panel.svg

<svg height="22" width="22" xmlns="http://www.w3.org/2000/svg"><path d="m8.6659887 3c-2.5853338 0-4.6660158 2.1018375-4.6660158 4.7128906v2.5742184c0 .0034.002.0064.002.0098.0024 1.722632.163625 5.562883 1.521485 7.109375 1.223584 1.393527 4.0756863 1.593716 5.2285181 1.593716 2.04875 0 3.248047-.802734 3.248047-.802734v-1.697266s-1.521099.525921-2.980469.5c-1.0498713-.02868-2.6946491-.44019-2.9199211-1.599609-.02997-.143879-.04303-.308944-.06445-.464844.208573.028565.414287.064453.6308598.064453h4.6679683c2.585334 0 4.666016-2.101838 4.666016-4.712891v-2.5742184c0-2.6110531-2.080682-4.7128906-4.666016-4.7128906zm-.6660158 4a1 1 0 0 1 1.0000002 1 1 1 0 0 1 -1.0000002 1 1 1 0 0 1 -1-1 1 1 0 0 1 1-1z" fill="#d3dae3"/></svg>

<svg xmlns="http://www.w3.org/2000/svg" width="22" height="22" version="1.1">
 <defs>
  <style id="current-color-scheme" type="text/css">
   .ColorScheme-Text { color:#d3dae3; } .ColorScheme-Highlight { color:#5294e2; }
  </style>
 </defs>
 <path style="fill:currentColor" class="ColorScheme-Text" d="M 8.6659887,3 C 6.0806549,3 3.9999729,5.1018375 3.9999729,7.7128906 v 2.5742184 c 0,0.0034 0.002,0.0064 0.002,0.0098 0.0024,1.722632 0.163625,5.562883 1.521485,7.109375 C 6.7470419,18.799811 9.5991442,19 10.751976,19 c 2.04875,0 3.248047,-0.802734 3.248047,-0.802734 V 16.5 c 0,0 -1.521099,0.525921 -2.980469,0.5 C 9.9696827,16.97132 8.3249049,16.55981 8.0996329,15.400391 8.0696629,15.256512 8.0566029,15.091447 8.0351829,14.935547 8.2437559,14.964112 8.4494699,15 8.6660427,15 h 4.6679683 c 2.585334,0 4.666016,-2.101838 4.666016,-4.712891 V 7.7128906 C 18.000027,5.1018375 15.919345,3 13.334011,3 Z M 7.9999729,7 a 1,1 0 0 1 1.0000002,1 1,1 0 0 1 -1.0000002,1 1,1 0 0 1 -1,-1 1,1 0 0 1 1,-1 z"/>
</svg>
